Numix-Light/16/status/indicator-keyboard-Fi-1.svg

<?xml version="1.0" encoding="UTF-8" standalone="no"?>
<svg
   xmlns:dc="http://purl.org/dc/elements/1.1/"
   xmlns:cc="http://creativecommons.org/ns#"
   xmlns:rdf="http://www.w3.org/1999/02/22-rdf-syntax-ns#"
   xmlns:svg="http://www.w3.org/2000/svg"
   xmlns="http://www.w3.org/2000/svg"
   xmlns:sodipodi="http://sodipodi.sourceforge.net/DTD/sodipodi-0.dtd"
   xmlns:inkscape="http://www.inkscape.org/namespaces/inkscape"
   viewBox="0 0 16 16"
   id="svg2"
   version="1.1"
   inkscape:version="0.91 r13725"
   sodipodi:docname="indicator-keyboard-Fi-1.svg">
  <metadata
     id="metadata14">
    <rdf:RDF>
      <cc:Work
         rdf:about="">
        <dc:format>image/svg+xml</dc:format>
        <dc:type
           rdf:resource="http://purl.org/dc/dcmitype/StillImage" />
      </cc:Work>
    </rdf:RDF>
  </metadata>
  <defs
     id="defs12" />
  <sodipodi:namedview
     pagecolor="#ffffff"
     bordercolor="#666666"
     borderopacity="1"
     objecttolerance="10"
     gridtolerance="10"
     guidetolerance="10"
     inkscape:pageopacity="0"
     inkscape:pageshadow="2"
     inkscape:window-width="640"
     inkscape:window-height="480"
     id="namedview10"
     showgrid="false"
     inkscape:zoom="14.75"
     inkscape:cx="8"
     inkscape:cy="8"
     inkscape:window-x="65"
     inkscape:window-y="24"
     inkscape:window-maximized="0"
     inkscape:current-layer="svg2" />
  <path
     style="fill:#353535;fill-opacity:1"
     d="M 1.5996094 0 C 0.71320937 2.9605947e-16 0 0.71320937 0 1.5996094 L 0 14.400391 C 2.9605947e-16 15.286791 0.71320937 16 1.5996094 16 L 14.400391 16 C 15.286791 16 16 15.286791 16 14.400391 L 16 1.5996094 C 16 0.71320937 15.286791 0 14.400391 0 L 1.5996094 0 z M 8.8984375 4.5898438 C 9.0184375 4.5898438 9.1210781 4.6308438 9.2050781 4.7148438 C 9.2890781 4.7928438 9.3300781 4.9010625 9.3300781 5.0390625 C 9.3300781 5.1770625 9.2890781 5.2870937 9.2050781 5.3710938 C 9.1210781 5.4490937 9.0184375 5.4882813 8.8984375 5.4882812 C 8.7784375 5.4882812 8.67775 5.4490937 8.59375 5.3710938 C 8.50975 5.2870937 8.4667969 5.1770625 8.4667969 5.0390625 C 8.4667969 4.9010625 8.50975 4.7928438 8.59375 4.7148438 C 8.67775 4.6308438 8.7784375 4.5898437 8.8984375 4.5898438 z M 3.9707031 4.859375 L 7.5253906 4.859375 L 7.5253906 5.390625 L 4.5839844 5.390625 L 4.5839844 7.5859375 L 7.1933594 7.5859375 L 7.1933594 8.1171875 L 4.5839844 8.1171875 L 4.5839844 11.095703 L 3.9707031 11.095703 L 3.9707031 4.859375 z M 8.6113281 6.4433594 L 9.1953125 6.4433594 L 9.1953125 11.095703 L 8.6113281 11.095703 L 8.6113281 6.4433594 z M 11.759766 8.8417969 L 12.029297 8.8417969 L 12.029297 12.896484 L 11.648438 12.896484 L 11.648438 9.421875 C 11.605538 9.468675 11.548716 9.5157063 11.478516 9.5664062 C 11.412216 9.6171063 11.3358 9.66805 11.25 9.71875 C 11.1642 9.76555 11.076022 9.812575 10.982422 9.859375 C 10.888822 9.902275 10.794772 9.9375437 10.701172 9.9648438 L 10.589844 9.671875 C 10.823844 9.5899751 11.031544 9.4880813 11.214844 9.3632812 C 11.398144 9.2345813 11.580366 9.0601969 11.759766 8.8417969 z "
     id="path4" />
</svg>

<svg xmlns="http://www.w3.org/2000/svg" viewBox="0 0 16 16">
 <path d="m 1.6 0 c -0.886 0 -1.6 0.713 -1.6 1.6 l 0 12.801 c 0 0.886 0.713 1.6 1.6 1.6 l 12.801 0 c 0.886 0 1.6 -0.713 1.6 -1.6 l 0 -12.801 c 0 -0.886 -0.713 -1.6 -1.6 -1.6 l -12.801 0 z m 7.299 4.59 c 0.12 0 0.223 0.041 0.307 0.125 c 0.084 0.078 0.125 0.186 0.125 0.324 c 0 0.138 -0.041 0.248 -0.125 0.332 c -0.084 0.078 -0.187 0.117 -0.307 0.117 c -0.12 0 -0.221 -0.039 -0.305 -0.117 c -0.084 -0.084 -0.127 -0.194 -0.127 -0.332 c 0 -0.138 0.043 -0.246 0.127 -0.324 c 0.084 -0.084 0.185 -0.125 0.305 -0.125 z m -4.928 0.27 l 3.555 0 l 0 0.531 l -2.941 0 l 0 2.195 l 2.609 0 l 0 0.531 l -2.609 0 l 0 2.979 l -0.613 0 l 0 -6.236 z m 4.641 1.584 l 0.584 0 l 0 4.652 l -0.584 0 l 0 -4.652 z m 3.148 2.398 l 0.27 0 l 0 4.055 l -0.381 0 l 0 -3.475 c -0.043 0.047 -0.1 0.094 -0.17 0.145 c -0.066 0.051 -0.143 0.102 -0.229 0.152 c -0.086 0.047 -0.174 0.094 -0.268 0.141 c -0.094 0.043 -0.188 0.078 -0.281 0.105 l -0.111 -0.293 c 0.234 -0.082 0.442 -0.184 0.625 -0.309 c 0.183 -0.129 0.366 -0.303 0.545 -0.521 z" style="fill:#353535;fill-opacity:1"/>
</svg>
